assets/svg/icon_search_channel.svg

<svg width="24" height="24" viewBox="0 0 24 24" fill="none" xmlns="http://www.w3.org/2000/svg">
<path fill-rule="evenodd" clip-rule="evenodd" d="M4 7.4285C4 5.535 5.53499 4 7.4285 4C9.32201 4 10.857 5.535 10.857 7.4285V9.35328C10.857 9.36863 10.857 9.38406 10.8571 9.39955C10.8574 9.57464 10.8578 9.75728 10.814 9.92079C10.6972 10.3567 10.3567 10.6972 9.92079 10.814C9.75728 10.8578 9.57464 10.8574 9.39955 10.8571C9.38406 10.857 9.36863 10.857 9.35328 10.857H7.4285C5.53499 10.857 4 9.32201 4 7.4285Z" stroke="#9A9A9A"/>
<path d="M14.6467 13.143L14.6004 13.1429C14.4253 13.1426 14.2427 13.1422 14.0792 13.186C13.6433 13.3028 13.3028 13.6433 13.186 14.0792C13.1422 14.2427 13.1426 14.4253 13.1429 14.6004L13.143 14.6467V16.5715C13.143 18.465 14.678 20 16.5715 20C18.465 20 20 18.465 20 16.5715C20 14.678 18.465 13.143 16.5715 13.143H14.6467Z" stroke="#9A9A9A"/>
<path fill-rule="evenodd" clip-rule="evenodd" d="M9.67906 13.1545C9.83291 13.167 10.0012 13.1958 10.1675 13.2805C10.4051 13.4016 10.5984 13.5949 10.7195 13.8325C10.8042 13.9988 10.833 14.1671 10.8455 14.3209C10.8571 14.4636 10.8571 14.6343 10.8571 14.8202V16.5714C10.8571 18.465 9.32212 20 7.42857 20C5.53503 20 4 18.465 4 16.5714C4 14.6778 5.53503 13.1429 7.42857 13.1429H9.17983C9.36568 13.1429 9.53638 13.1429 9.67906 13.1545Z" stroke="#9A9A9A"/>
<path fill-rule="evenodd" clip-rule="evenodd" d="M13.1429 7.42856C13.1429 5.53502 14.6779 4 16.5714 4C18.465 4 20 5.53502 20 7.42856C20 9.32211 18.465 10.8571 16.5714 10.8571H14.5092C14.5025 10.8571 14.496 10.8571 14.4893 10.8571C14.4143 10.8572 14.3364 10.8573 14.2646 10.8492C13.679 10.7832 13.2168 10.321 13.1508 9.7354C13.1427 9.66365 13.1428 9.58573 13.1429 9.51071C13.1429 9.50407 13.1429 9.49745 13.1429 9.49086V7.42856Z" stroke="#9A9A9A"/>
</svg>

<svg xmlns="http://www.w3.org/2000/svg" width="24" height="24" fill="none"><path stroke="#9A9A9A" d="M4 7.429a3.429 3.429 0 0 1 6.857 0V9.4c0 .175 0 .357-.043.52a1.26 1.26 0 0 1-.893.894c-.164.044-.346.043-.521.043H7.429A3.43 3.43 0 0 1 4 7.429Z" clip-rule="evenodd"/><path stroke="#9A9A9A" d="M14.647 13.143H14.6c-.175 0-.357 0-.52.043a1.26 1.26 0 0 0-.894.893c-.044.164-.043.346-.043.521v1.972a3.429 3.429 0 1 0 3.428-3.429z"/><path stroke="#9A9A9A" d="M9.68 13.155c.153.012.321.04.488.126.237.12.43.314.552.551.084.167.113.335.125.489.012.143.012.313.012.5v1.75a3.429 3.429 0 1 1-3.428-3.428h1.75c.187 0 .357 0 .5.011ZM13.143 7.429a3.429 3.429 0 1 1 3.428 3.428H14.49c-.075 0-.153 0-.224-.008a1.26 1.26 0 0 1-1.114-1.114 2 2 0 0 1-.008-.224V7.429Z" clip-rule="evenodd"/></svg>
